assets/src/images/icons/ic_audit_pay.svg

<svg width="102" height="102" viewBox="0 0 102 102" fill="none" xmlns="http://www.w3.org/2000/svg">
<g filter="url(#filter0_d)">
<path fill-rule="evenodd" clip-rule="evenodd" d="M65 37.4158V33.5C64.9975 31.568 63.432 30.0025 61.5 30H33.5C31.568 30.0025 30.0025 31.568 30 33.5V48.9C30.0054 50.6876 31.3604 52.1826 33.1388 52.3639L35.7701 59.1944C36.4652 60.9979 38.4906 61.8964 40.2944 61.2021L56.726 54.8724C55.5906 57.8381 55.9136 61.165 57.5978 63.8571L58 64.5002V71.3C58 71.6867 58.3132 72 58.7 72H71.3C71.6867 72 72 71.6867 72 71.3V48.1939C71.9933 45.7731 71.0296 43.4536 69.3181 41.7416L65 37.4158ZM65 41.6021L67.1245 47.1171C67.5408 48.1996 67.0013 49.4143 65.9189 49.831L64.7046 50.3C64.8985 49.8587 64.9989 49.3816 65 48.9V41.6021ZM31.4 48.9V33.5C31.4 32.3404 32.3404 31.4 33.5 31.4H61.5C62.6595 31.4 63.6 32.3404 63.6 33.5V37.9492H63.5939L63.6 37.9651V48.9C63.5946 49.0222 63.5786 49.1432 63.5524 49.2626L57.1404 42.8499C55.6991 41.4418 53.4014 41.431 51.9471 42.8243C50.4925 44.2186 50.4052 46.5146 51.7504 48.0143L54.4839 51H33.5C32.3404 51 31.4 50.0595 31.4 48.9ZM40.3677 52.4L35.39 54.3164L34.6536 52.4H40.3677ZM39.7909 59.8954C38.7087 60.3126 37.4933 59.7731 37.0763 58.6909L35.8954 55.62L44.2513 52.4V52.3958H55.767L56.6768 53.3877L39.7909 59.8954ZM59.4 70.6V65H70.6V70.6H59.4ZM70.6 63.6H59.0885L58.7849 63.1149C57.0781 60.3873 57.0102 56.9423 58.6076 54.15C58.7588 53.8857 58.7217 53.5539 58.5159 53.3296L52.7796 47.0716C51.9242 46.1353 51.9723 44.6879 52.8881 43.811C53.8042 42.9339 55.2523 42.9482 56.1504 43.8428L67.3051 54.9949L68.2949 54.0051L65.7049 51.4151L66.4231 51.1351C68.2253 50.4398 69.1233 48.4161 68.43 46.6129L66.0607 40.4606L68.3283 42.733C69.7773 44.1816 70.5944 46.1448 70.6 48.1939V63.6ZM37.98 39.8C38.9852 39.8 39.8 38.9852 39.8 37.98V34.62C39.8 33.6148 38.9852 32.8 37.98 32.8H34.62C33.6148 32.8 32.8 33.6148 32.8 34.62V37.98C32.8 38.9852 33.6148 39.8 34.62 39.8H37.98ZM34.2 37.98V37H35.6V35.6H34.2V34.62C34.2 34.3881 34.3881 34.2 34.62 34.2H37.98C38.2119 34.2 38.4 34.3881 38.4 34.62V35.6H37V37H38.4V37.98C38.4 38.2119 38.2119 38.4 37.98 38.4H34.62C34.3881 38.4 34.2 38.2119 34.2 37.98ZM36.3 41.9H33.5V43.3H36.3V41.9ZM33.5 46.1H36.3V47.5H33.5V46.1ZM48.9 46.1H46.1V47.5H48.9V46.1ZM37.7 41.9H40.5V43.3H37.7V41.9ZM44.7 41.9H41.9V43.3H44.7V41.9ZM46.1 41.9H48.9V43.3H46.1V41.9ZM60.8 33.5H59.4V35.6H60.8V33.5ZM56.6 33.5H58V35.6H56.6V33.5ZM55.2 33.5H53.8V35.6H55.2V33.5ZM51 33.5H52.4V35.6H51V33.5ZM62.2 66.4H60.8V67.8H62.2V66.4Z" fill="#0EF5FF"/>
</g>
<defs>
<filter id="filter0_d" x="0" y="0" width="102" height="102" filterUnits="userSpaceOnUse" color-interpolation-filters="sRGB">
<feFlood flood-opacity="0" result="BackgroundImageFix"/>
<feColorMatrix in="SourceAlpha" type="matrix" values="0 0 0 0 0 0 0 0 0 0 0 0 0 0 0 0 0 0 127 0"/>
<feOffset/>
<feGaussianBlur stdDeviation="15"/>
<feColorMatrix type="matrix" values="0 0 0 0 0.054902 0 0 0 0 0.960784 0 0 0 0 1 0 0 0 0.8 0"/>
<feBlend mode="normal" in2="BackgroundImageFix" result="effect1_dropShadow"/>
<feBlend mode="normal" in="SourceGraphic" in2="effect1_dropShadow" result="shape"/>
</filter>
</defs>
</svg>

<svg width="102" height="102" viewBox="0 0 102 102" fill="none" xmlns="http://www.w3.org/2000/svg"><g filter="url(#filter0_d)"><path fill-rule="evenodd" clip-rule="evenodd" d="M65 37.416V33.5a3.504 3.504 0 00-3.5-3.5h-28a3.504 3.504 0 00-3.5 3.5v15.4a3.493 3.493 0 003.139 3.464l2.631 6.83a3.5 3.5 0 004.524 2.008l16.432-6.33a10.12 10.12 0 00.872 8.985L58 64.5v6.8a.7.7 0 00.7.7h12.6a.7.7 0 00.7-.7V48.194a9.161 9.161 0 00-2.682-6.452L65 37.416zm0 4.186l2.124 5.515a2.1 2.1 0 01-1.205 2.714l-1.214.469c.194-.441.294-.918.295-1.4v-7.298zM31.4 48.9V33.5c0-1.16.94-2.1 2.1-2.1h28c1.16 0 2.1.94 2.1 2.1v4.45h-.006l.006.015V48.9a2.128 2.128 0 01-.048.363L57.14 42.85a3.734 3.734 0 00-5.39 5.164L54.484 51H33.5a2.1 2.1 0 01-2.1-2.1zm8.968 3.5l-4.978 1.916-.736-1.916h5.714zm-.577 7.495a2.1 2.1 0 01-2.715-1.204l-1.18-3.071 8.355-3.22v-.004h11.516l.91.992-16.886 6.507zM59.4 70.6V65h11.2v5.6H59.4zm11.2-7H59.089l-.304-.485a8.73 8.73 0 01-.177-8.965.7.7 0 00-.092-.82l-5.736-6.258a2.334 2.334 0 013.37-3.23l11.155 11.153.99-.99-2.59-2.59.718-.28a3.5 3.5 0 002.007-4.522l-2.37-6.152 2.268 2.272a7.752 7.752 0 012.272 5.46V63.6zM37.98 39.8a1.82 1.82 0 001.82-1.82v-3.36a1.82 1.82 0 00-1.82-1.82h-3.36a1.82 1.82 0 00-1.82 1.82v3.36a1.82 1.82 0 001.82 1.82h3.36zm-3.78-1.82V37h1.4v-1.4h-1.4v-.98a.42.42 0 01.42-.42h3.36a.42.42 0 01.42.42v.98H37V37h1.4v.98a.42.42 0 01-.42.42h-3.36a.42.42 0 01-.42-.42zm2.1 3.92h-2.8v1.4h2.8v-1.4zm-2.8 4.2h2.8v1.4h-2.8v-1.4zm15.4 0h-2.8v1.4h2.8v-1.4zm-11.2-4.2h2.8v1.4h-2.8v-1.4zm7 0h-2.8v1.4h2.8v-1.4zm1.4 0h2.8v1.4h-2.8v-1.4zm14.7-8.4h-1.4v2.1h1.4v-2.1zm-4.2 0H58v2.1h-1.4v-2.1zm-1.4 0h-1.4v2.1h1.4v-2.1zm-4.2 0h1.4v2.1H51v-2.1zm11.2 32.9h-1.4v1.4h1.4v-1.4z" fill="#0EF5FF"/></g><defs><filter id="filter0_d" x="0" y="0" width="102" height="102" filterUnits="userSpaceOnUse" color-interpolation-filters="sRGB"><feFlood flood-opacity="0" result="BackgroundImageFix"/><feColorMatrix in="SourceAlpha" values="0 0 0 0 0 0 0 0 0 0 0 0 0 0 0 0 0 0 127 0"/><feOffset/><feGaussianBlur stdDeviation="15"/><feColorMatrix values="0 0 0 0 0.054902 0 0 0 0 0.960784 0 0 0 0 1 0 0 0 0.8 0"/><feBlend in2="BackgroundImageFix" result="effect1_dropShadow"/><feBlend in="SourceGraphic" in2="effect1_dropShadow" result="shape"/></filter></defs></svg>
